X: 1
T: the Wind That Shakes the Barley
R: reel
O: c.1800 (arr. Elka Baker)
S: Page from Boston Slow Scottish Session collection
B: Northern Minstrel c.1800
N: "Paddledoo Music" at lower right.
B: Henry Robson's "The Northern Minstrel's Budget", c.1800
B: Joshua Gibbons (Lincolnshire) private MS c.1825
B: Surenne (Dance Music of Scotland), 1852; pg. 41
B: Stewart-Robertson (The Athole Collection), 1884; pg. 89
B: MacDonald (The Skye Collection), 1887; pg. 35
B: RSCDS 21-8(II) (in A)
Z: 2018 John Chambers <jc:trillian.mit.edu>
M: C|
L: 1/8
K: D
B |\
"D"A2AB AFED | "G"B2BA BcdB |\
"D"A2AB "(F#m)"AFED | "G"gfed "A"Bc d :|
|: e |\
"D"f2fd "Em"g2ge | "D"f2fd "A"Bcde |\
"D"f2fd "Em"g2ge | "D"afed "G"Bc d :|


